!!!COM: Hugo Wolf
!!!CNT: Deutscher
!!!TXO: Deutsche 
!!!OTL: Der Scholar
!!!ODT: 1888/09/22
!!!ONM: No. 13
!!!LYR: Joseph von Eichendorff
!!!ENC: Brian Bice
!!!YOR: 45 Songs on Poems of Goethe and Eichendorff, Dover Publications, 1995
!!NB: Vocal melody and text only encoded.
**kern	**silbe
*clefG2	*
*k[]	*
*M4/4	*
=5	=5
{4dd	{Bei
4ff	dem
4.ee	an-
8cc	-ge-
=6	=6
(8.b	-nehm-
16dd)	|
(8.cc	-sten
16b)	|
4a	Wet-
4e}	-ter}
=7	=7
{4f	{sin-
4dd	-gen
4dd#	al-
4f#	-le
=8	=8
4g	Vo2-
4ffn	-ge-
4ee}	-lein,}
4r	.
=9	=9
{4dd	{klatscht
4ff	der
4.ee	Re-
8cc	-gen
=10	=10
(8.b	auf
16dd)	|
(8.cc	die
16b)	|
4a	Bla2t-
4e}	-ter.}
=11	=11
{4dd	{sing
4cc	ich
4b	so
4a	fu2r
=12	=12
4cc	mich
(12b	al-
12cc	|
12b)	|
2a}	-lein.}
=17	=17
{4.cc	{Denn
8cc	mein
4.dd	Aug'
8ee	kann
=18	=18
(8.ff	nichts
16ee)	|
(8.dd	ent-
16cc)	|
4dd	-dek-
4g}	-ken,}
=19	=19
{4.dd#	{wenn
8dd#	der
4.ee	Blitz
8gg	auch
=20	=20
4gg	grau-
4ff#	-sam
2ffn}	glu2ht,}
=21	=21
{4.cc	{was
8cc	im
4.dd	Wan-
8ee	-dern
=22	=22
(8.ff	ko2nnt'
16ee)	|
(8.dd	er-
16cc#)	|
4dd	-scherk-
4a}	-ken}
=23	=23
{4b	{ein
4b	zu-
4b	-frie-
4ee	-de-
=24	=24
4g#	-nes
4f#	Ge-
4e}	-mu2t.}
4r	.
=25	=25
{4ffn	{Frei
4ffn	von
4.ee	Mam-
8cc	-mon
=26	=26
(8.b	will
16dd)	|
(8.cc	ich
16b)	|
4a	schrei-
4e}	-ten}
=27	=27
{4f	{auf
4dd	dem
4f#	Feld
4dd#	der
=28	=28
4g	Wis-
4ffn	-sen-
2ee}	schaft,}
=29	=29
{4dd	{sin-
4ff	-ne
4.ee	ernst
8cc	und
=30	=30
(8.b	nehm'
16dd)	|
(8.cc	zu
16b)	|
4a	Zei-
4e}	-ten}
=31	=31
{4dd	{ei-
4cc	-nen
4b	Mund
4a	voll
=32	=32
4cc	Re-
(12b	-ben-
12cc	|
12b)	|
2a}	-saft.}
=37	=37
{4ee	{Bin
4ee	ich
[2ee-	mu2-
=38	=38
8ee-]	|
8ee-	-de
8.dd	vom
16cc	Stu-
4b	-die-
4g}	-ren,}
=39	=39
{4en	{wann
4g	der
4.cc	Mond
8cc	tritt
=40	=40
4cc	sanft
4dd	her-
2ee}	-fu2r,}
=41	=41
{4ff	{pfleg'
4ff	'ich
4.ee	dann
8cc	zu
=42	=42
(8.b	mu-
16dd)	|
(8.cc	-si-
16b)	|
4a	-zie-
4e}	-reh}
=43	=43
{(8f	{vor
8b-)	|
(8cc	der
8dd)	|
(8ee	Al-
8ff)	|
(8ee	-ler-
8aa)	|
=44	=44
4cc	-sco2n-
4bn	-sten
2a}	Tu2r.}
*-	*-
